usr/share/icons/biglinux-icons-material/scalable/mimetypes/application-x-deb.svg

<svg width="24" height="24" viewBox="0 0 24 24" fill="none" xmlns="http://www.w3.org/2000/svg">
<rect x="1" y="1" width="22" height="22" rx="6.6" fill="url(#paint0_radial_1_768)"/>
<path opacity="0.75" d="M17.2682 16.9688C16.6781 16.8705 15.8322 16.5363 15.3081 16.1945C14.1571 15.4437 13.4053 14.6102 12.9401 13.569C12.7855 13.2231 12.7011 12.9547 12.4595 12.0415C12.3994 11.8145 12.3247 11.5644 12.2934 11.4858C12.2406 11.3533 12.2383 11.3086 12.2613 10.8665C12.2831 10.4466 12.3542 9.87833 12.3923 9.81858C12.3997 9.80698 12.4171 9.80423 12.431 9.81248C12.478 9.84038 12.5215 9.71139 12.5642 9.41717C12.5876 9.25597 12.6243 9.08693 12.6459 9.04151C12.6674 8.99611 12.7039 8.89587 12.7269 8.81879C12.78 8.64136 12.8523 8.50498 13.076 8.16078C13.1743 8.0094 13.2766 7.84452 13.3032 7.79439C13.3345 7.7354 13.3687 7.7065 13.4001 7.71249C13.4303 7.71824 13.4802 7.67999 13.5325 7.611C13.7599 7.31089 14.8309 6.42548 14.93 6.45568C14.957 6.46393 15.0701 6.42673 15.1811 6.37306C15.382 6.27597 15.4706 6.25351 15.4706 6.29962C15.4706 6.31292 15.4415 6.34312 15.406 6.36674C15.3437 6.40819 15.345 6.40889 15.4419 6.38639C15.4971 6.37354 15.5901 6.35529 15.6485 6.34579C15.7207 6.33404 15.7501 6.31674 15.7401 6.29184C15.7314 6.26999 15.7522 6.24834 15.7916 6.23819C15.8903 6.21284 16.0442 6.21699 16.0442 6.24504C16.0442 6.27869 15.9562 6.31267 15.8864 6.30603C15.8388 6.30153 15.8364 6.30553 15.8721 6.32888C15.9076 6.35228 15.908 6.35728 15.8746 6.35763C15.8522 6.35786 15.8413 6.36508 15.8503 6.37373C15.8593 6.38233 15.9191 6.36373 15.9832 6.33233C16.0473 6.30093 16.1647 6.2619 16.2441 6.24556C16.3418 6.22546 16.3884 6.20211 16.3884 6.17331C16.3884 6.13626 16.4338 6.13311 16.7398 6.14891C16.933 6.15891 17.2246 6.18796 17.3878 6.2135C17.6844 6.25995 17.6844 6.25995 17.795 6.1989C17.9276 6.12567 18.1408 6.11614 18.1969 6.18095C18.2174 6.20465 18.2738 6.24373 18.3223 6.26778C18.4013 6.30703 18.4066 6.30708 18.3732 6.26828C18.3097 6.19483 18.3727 6.19668 18.6179 6.27548C19.4082 6.52948 20.0524 6.98184 20.5305 7.61839C20.6439 7.76935 20.6507 7.83726 20.5433 7.74537L20.4819 7.69279L20.5288 7.78087C20.5546 7.82932 20.5758 7.88376 20.5758 7.90186C20.5758 7.91996 20.6518 8.05372 20.7447 8.1991C20.954 8.52676 21.0126 8.63715 20.9985 8.67759C20.9925 8.69494 20.8997 8.57952 20.7924 8.42113C20.6851 8.26275 20.5263 8.04935 20.4395 7.94691C20.3099 7.79394 20.2759 7.76777 20.2495 7.80047C20.2318 7.82237 20.1885 7.84422 20.1534 7.84912L20.0894 7.85797L20.1527 7.97691C20.1874 8.04233 20.2205 8.08259 20.2261 8.06636C20.2563 7.97947 20.3969 8.09371 20.4608 8.25705C20.4815 8.31003 20.5366 8.41914 20.5832 8.49951C20.6298 8.57988 20.6621 8.65127 20.6549 8.65815C20.6478 8.66505 20.6052 8.643 20.5605 8.6092L20.4791 8.54775L20.5346 8.63922C20.5651 8.68953 20.6163 8.75107 20.6482 8.77598C20.6881 8.80708 20.7071 8.85616 20.7089 8.93248C20.7124 9.0734 20.7963 9.23988 20.8421 9.19598C20.9133 9.12759 20.928 9.17033 20.9101 9.3943C20.8969 9.55932 20.9039 9.66808 20.9352 9.78354C20.9828 9.95883 20.9726 10.0021 20.903 9.92017C20.8587 9.86807 20.8583 9.8681 20.8781 9.92217C20.9206 10.0381 20.9523 10.2115 20.9435 10.2795C20.927 10.4065 20.8773 10.3537 20.8602 10.191L20.8435 10.0323L20.8385 10.2012C20.836 10.2942 20.8131 10.4738 20.788 10.6003C20.7626 10.7282 20.7497 10.8831 20.759 10.9488C20.7764 11.0726 20.7641 11.0773 20.6563 10.9887C20.6125 10.9526 20.6049 10.9599 20.5748 11.0673C20.5494 11.1576 20.5496 11.2091 20.5758 11.2847C20.5945 11.3392 20.6054 11.4132 20.6 11.449C20.5874 11.5317 20.5184 11.5575 20.5184 11.4795C20.5184 11.3814 20.4795 11.4163 20.3606 11.6211C20.0397 12.1742 19.5319 12.6023 18.9571 12.8041C18.6183 12.9231 18.391 12.9673 18.0088 12.9883L17.6647 13.0072L17.8347 13.0575C17.9718 13.0981 18.0524 13.1042 18.2506 13.0888C18.5103 13.0686 18.8152 13.0146 18.9534 12.9641C19.0086 12.944 19.0459 12.9431 19.065 12.9611C19.1099 13.0043 18.7105 13.1739 18.4734 13.2124C18.07 13.2778 17.5299 13.2071 17.0532 13.0265C16.7298 12.9039 16.2498 12.5848 16.3234 12.5412C16.3373 12.5329 16.4286 12.5746 16.5263 12.6339C16.6511 12.7096 16.7039 12.7296 16.7039 12.7011C16.7039 12.6472 16.7223 12.6497 16.8215 12.7175C16.9111 12.7787 17.1866 12.8924 17.385 12.95C17.6013 13.0128 17.5175 12.9367 17.2273 12.8068C16.3098 12.3963 15.9289 11.9858 15.7391 11.2027C15.6695 10.9155 15.7441 10.286 15.871 10.0888C15.9032 10.0389 15.9295 9.97744 15.9295 9.9523C15.9295 9.84323 16.119 9.55505 16.3135 9.36844C16.6562 9.03958 17.0125 8.90306 17.475 8.92337C17.6986 8.93322 17.7941 8.95207 17.9802 9.02317C18.1912 9.10383 18.457 9.27269 18.3756 9.27442C18.3564 9.27483 18.2726 9.24787 18.1892 9.21452C18.0624 9.16383 17.9811 9.15367 17.6934 9.15259C17.2893 9.15109 17.0918 9.2061 16.8043 9.40025C16.3966 9.67552 16.1699 9.99256 16.0896 10.3998C16.0357 10.673 16.0341 10.7487 16.0761 11.0197C16.1003 11.1759 16.1175 11.2217 16.1478 11.2106C16.1733 11.2012 16.1877 11.2151 16.1877 11.2485C16.1877 11.3453 16.4071 11.7379 16.5593 11.9134C16.9257 12.3358 17.5182 12.6054 18.0805 12.6054C18.3724 12.6054 18.6083 12.5517 18.8254 12.4357C18.9126 12.3891 19.0227 12.3322 19.07 12.3092C19.237 12.228 19.3406 12.1352 19.4617 11.9584C19.529 11.8601 19.6022 11.7797 19.6243 11.7797C19.657 11.7797 19.6556 11.7939 19.6168 11.8554C19.4888 12.0582 19.7892 11.6895 19.9448 11.453L20.1191 11.188L20.1001 11.0139C20.0818 10.8467 20.0845 10.8365 20.1678 10.7525C20.2481 10.6716 20.2554 10.6476 20.2646 10.4314C20.2729 10.2378 20.2671 10.1977 20.2316 10.1974C20.1985 10.1972 20.1843 10.1463 20.1701 9.97699C20.1512 9.75295 19.9611 8.99907 19.9169 8.97282C19.9035 8.96492 19.8664 8.89241 19.8345 8.81174C19.7267 8.53947 19.5376 8.27768 19.2428 7.99247C18.8186 7.5821 18.2842 7.26521 17.7794 7.12471C17.3501 7.00519 16.621 7.04857 16.1016 7.22455C15.8481 7.31043 15.5984 7.42415 15.5563 7.47288C15.5372 7.49498 15.5094 7.50593 15.4947 7.49718C15.4791 7.48798 15.4834 7.46328 15.5049 7.43848C15.6006 7.32786 15.2831 7.53033 15.0787 7.71029C14.9552 7.81908 14.8496 7.91141 14.844 7.91545C14.8385 7.91945 14.8626 7.91564 14.8975 7.9069C14.9556 7.89235 14.958 7.8962 14.9265 7.9527C14.9063 7.9889 14.8012 8.054 14.6723 8.1101C14.4558 8.20436 14.3157 8.30795 14.2045 8.45617C14.1601 8.51535 14.1575 8.5281 14.1926 8.51516C14.2173 8.50606 14.2375 8.51166 14.2375 8.52781C14.2375 8.60641 14.1631 8.69416 14.0528 8.74556C13.8086 8.85944 13.3795 9.46767 13.1497 10.0259C13.0473 10.2746 13.0489 10.266 13.1046 10.266C13.1633 10.266 13.1592 10.33 13.0786 10.6736C12.9612 11.1742 12.961 11.1581 13.0889 11.8623C13.2447 12.7203 13.3358 13.0069 13.5089 13.1845C13.5495 13.2262 13.589 13.3148 13.6066 13.4038C13.6276 13.5101 13.6628 13.5803 13.7288 13.6471C13.789 13.708 13.8091 13.7453 13.786 13.7534C13.7406 13.7692 13.8826 13.9724 14.0122 14.077C14.0773 14.1297 14.1256 14.1473 14.178 14.1377C14.2926 14.1167 14.4094 14.1801 14.5888 14.3608C14.7753 14.5485 14.7939 14.599 14.6706 14.5816C14.591 14.5704 14.5891 14.5725 14.6283 14.6299C14.6508 14.6629 14.7339 14.7422 14.813 14.8061C14.924 14.896 14.9525 14.9348 14.9386 14.977C14.9186 15.0375 14.9757 15.0941 15.105 15.1415C15.1852 15.1709 15.211 15.2344 15.1507 15.2537C15.1324 15.2595 15.2453 15.3711 15.4016 15.5015C15.5777 15.6486 15.6961 15.7291 15.713 15.7134C15.7576 15.6719 15.8148 15.6845 15.8158 15.7362C15.8168 15.7925 15.8675 15.8517 16.0496 16.0097C16.1647 16.1095 16.1934 16.122 16.264 16.1034C16.3286 16.0863 16.3692 16.0973 16.4602 16.1563C16.6416 16.274 16.7517 16.321 16.8459 16.321C16.9386 16.321 16.9518 16.3466 16.9037 16.4329C16.8782 16.4786 16.8836 16.4862 16.9422 16.4862C16.9797 16.4862 17.0855 16.5109 17.1772 16.5412C17.3857 16.61 17.4726 16.6147 17.4204 16.5543C17.3432 16.465 17.4249 16.4894 17.7009 16.6378C18.0862 16.8452 18.2812 16.8689 19.0486 16.8016C19.1622 16.7917 19.1991 16.7976 19.1991 16.8253C19.1991 16.8492 19.1006 16.8851 18.9195 16.9272C18.6815 16.9824 18.5545 16.9931 18.0663 16.999C17.6816 17.0035 17.4186 16.9938 17.2682 16.9688ZM16.8759 12.8428C16.8759 12.837 16.8404 12.8115 16.797 12.7861L16.7181 12.74L16.7859 12.7967C16.8519 12.852 16.8759 12.8643 16.8759 12.8428ZM20.8247 9.95834C20.8155 9.93639 20.8087 9.94288 20.8073 9.97498C20.8058 10.004 20.8129 10.0202 20.8224 10.0111C20.8319 10.0019 20.8332 9.97819 20.8247 9.95834ZM14.2981 7.05295C14.3338 7.0093 14.3328 7.0083 14.2873 7.04255C14.2596 7.06335 14.2371 7.085 14.2371 7.0907C14.2371 7.11335 14.2606 7.09875 14.2981 7.05295ZM14.6243 6.79836C14.6528 6.76806 14.6697 6.74331 14.6618 6.74331C14.6539 6.74331 14.6241 6.76806 14.5956 6.79836C14.567 6.82866 14.5501 6.8534 14.558 6.8534C14.5659 6.8534 14.5957 6.82866 14.6243 6.79836ZM14.9853 6.60488C15.0798 6.57418 15.1335 6.56873 15.1535 6.58788C15.1734 6.60703 15.2474 6.59568 15.3851 6.55233C15.4964 6.51733 15.5823 6.48378 15.576 6.47778C15.5698 6.47178 15.4782 6.49458 15.3724 6.52846C15.2272 6.57501 15.175 6.58191 15.1588 6.55676C15.1314 6.51426 14.8704 6.59801 14.7583 6.6853L14.6816 6.74494L14.764 6.69749C14.8093 6.67139 14.9089 6.6297 14.9853 6.60488ZM15.8121 6.53502C15.8954 6.51127 15.9586 6.48707 15.9525 6.48127C15.9391 6.46842 15.6424 6.54995 15.6424 6.56649C15.6424 6.58314 15.6449 6.58272 15.8121 6.53502ZM16.2877 6.38497L16.4025 6.36487L16.3021 6.36237C16.2469 6.36087 16.1694 6.37892 16.13 6.40212C16.0836 6.42947 16.0785 6.43742 16.1157 6.42467C16.1472 6.41387 16.2246 6.39602 16.2877 6.38497ZM16.5155 6.33303C16.5244 6.31933 16.5058 6.31458 16.4742 6.32248C16.4072 6.33928 16.3987 6.35798 16.4581 6.35798C16.4809 6.35798 16.5067 6.34673 16.5155 6.33303ZM17.4415 6.34133C17.432 6.33218 17.4073 6.33123 17.3866 6.33933C17.3637 6.34813 17.3705 6.35463 17.4039 6.35598C17.4342 6.35698 17.451 6.35048 17.4415 6.34133ZM17.2701 6.31148C17.2425 6.30458 17.1973 6.30458 17.1697 6.31148C17.1421 6.31838 17.1647 6.32408 17.2199 6.32408C17.2751 6.32408 17.2977 6.31843 17.2701 6.31148ZM16.984 6.28293C16.9253 6.27703 16.822 6.27693 16.7546 6.28275C16.6871 6.28855 16.7352 6.2934 16.8614 6.2935C16.9876 6.2936 17.0428 6.28898 16.984 6.28293ZM16.6098 6.25878C16.6003 6.24963 16.5756 6.24863 16.5548 6.25678C16.5319 6.26558 16.5387 6.27208 16.5722 6.27343C16.6024 6.27443 16.6193 6.26793 16.6098 6.25878ZM16.4157 12.8739C16.1235 12.673 16.0153 12.5691 16.0153 12.4895C16.0153 12.4473 16.0253 12.4128 16.0374 12.4128C16.0788 12.4128 16.5672 12.902 16.5565 12.9328C16.5503 12.9506 16.4914 12.9259 16.4157 12.8739ZM16.2654 12.3639C16.1136 12.2167 16.065 12.1376 16.1263 12.1376C16.1632 12.1376 16.4455 12.4478 16.4455 12.4883C16.4455 12.5073 16.442 12.5229 16.4375 12.5229C16.433 12.5229 16.3556 12.4513 16.2654 12.3639ZM17.9441 11.7616C17.864 11.7306 17.914 11.6731 18.0445 11.6462C18.1194 11.6307 18.2385 11.5933 18.3091 11.563C18.3797 11.5326 18.4425 11.5127 18.4488 11.5187C18.455 11.5247 18.423 11.5858 18.3777 11.6546C18.2959 11.7789 18.2944 11.7797 18.1377 11.7776C18.0509 11.7766 17.9638 11.7692 17.9441 11.7616ZM18.8045 11.1459C18.7271 11.116 18.7239 11.0652 18.7885 10.8922C18.844 10.7435 18.9016 10.7142 18.8696 10.8509C18.858 10.9001 18.8427 10.9713 18.8354 11.0091L18.8221 11.0779L18.8794 11.0153C18.9133 10.9782 18.9447 10.8912 18.9563 10.8023C18.9671 10.7196 18.9873 10.6587 19.0013 10.667C19.0368 10.6881 19.033 10.9057 18.9947 11.052C18.9611 11.1798 18.931 11.1947 18.8045 11.1459ZM12.0174 10.8005C12.0079 10.7765 12 10.6826 12 10.5917C12 10.4719 12.0099 10.4297 12.0359 10.4379C12.0785 10.4514 12.1034 10.844 12.0617 10.844C12.0469 10.844 12.027 10.8244 12.0174 10.8005ZM18.917 10.1567C18.8724 10.0989 18.8587 10.0532 18.8713 10.0049C18.8973 9.90563 18.9652 9.91974 19.0153 10.0348C19.0932 10.2138 19.0256 10.2977 18.917 10.1567ZM12.0114 9.71974C12.0094 9.56368 12.0114 9.55885 12.0834 9.56149C12.1444 9.56349 12.1592 9.57914 12.1662 9.64824C12.1742 9.72616 12.0858 9.88071 12.0334 9.88071C12.0225 9.88071 12.0127 9.80828 12.0114 9.71974ZM19.4455 6.3363C19.4495 6.08999 19.4927 6.00655 19.5264 6.179C19.5499 6.29916 19.52 6.51135 19.4745 6.5476C19.4498 6.5673 19.4424 6.5136 19.4455 6.3363ZM15.6769 6.1887C15.6885 6.1555 16.0841 6 16.1571 6C16.2428 6 16.089 6.10082 15.9116 6.1609C15.7138 6.22789 15.6612 6.23412 15.6769 6.1887Z" fill="white"/>
<path d="M7 13.9941V17.2427C7 17.3812 7.11145 17.4926 7.24989 17.4926H8.74922C8.88766 17.4926 8.9991 17.3812 8.9991 17.2427V13.9941H7ZM7.49978 15.9932H8.49933V16.9927H7.49978V15.9932Z" fill="#FAFAFA"/>
<path d="M8.00045 1V1.99955H9V1H8.00045ZM8.00045 1.99955H7.00089V2.99911H8.00045V1.99955ZM8.00045 2.99911V3.99866H9V2.99911H8.00045ZM8.00045 3.99866H7.00089V4.99821H8.00045V3.99866ZM8.00045 4.99821V5.99777H9V4.99821H8.00045ZM8.00045 5.99777H7.00089V6.99732H8.00045V5.99777ZM8.00045 6.99732V7.99687H9V6.99732H8.00045ZM8.00045 7.99687H7.00089V8.99643H8.00045V7.99687ZM8.00045 8.99643V9.99598H9V8.99643H8.00045ZM8.00045 9.99598H7.00089V10.9955H8.00045V9.99598ZM8.00045 10.9955V11.9951H9V10.9955H8.00045ZM8.00045 11.9951H7.00089V12.9946H8.00045V11.9951ZM8.00045 12.9946V13.9942H9V12.9946H8.00045Z" fill="#FAFAFA"/>
<defs>
<radialGradient id="paint0_radial_1_768" cx="0" cy="0" r="1" gradientUnits="userSpaceOnUse" gradientTransform="translate(17.5 1) rotate(116.565) scale(24.5967)">
<stop stop-color="#FA92A8"/>
<stop offset="1" stop-color="#E04F6D"/>
</radialGradient>
</defs>
</svg>

<svg xmlns="http://www.w3.org/2000/svg" width="24" height="24" fill="none"><rect width="22" height="22" x="1" y="1" fill="url(#a)" rx="6.6"/><path fill="#fff" d="M17.268 16.969c-.59-.099-1.436-.433-1.96-.774-1.15-.751-1.903-1.585-2.368-2.626-.154-.346-.239-.614-.48-1.528a7.241 7.241 0 0 0-.167-.555c-.052-.133-.055-.177-.032-.62.022-.42.093-.988.131-1.047.008-.012.025-.015.039-.007.047.028.09-.1.133-.395.024-.161.06-.33.082-.375.021-.046.058-.146.08-.223.054-.178.126-.314.35-.658a7.8 7.8 0 0 0 .227-.367c.031-.059.066-.087.097-.082.03.006.08-.032.133-.101.227-.3 1.298-1.186 1.397-1.155.027.008.14-.03.251-.083.201-.097.29-.12.29-.073 0 .013-.03.043-.065.067-.062.041-.061.042.036.02.055-.013.148-.032.207-.041.072-.012.101-.03.091-.054-.009-.022.012-.044.052-.054.098-.025.252-.021.252.007 0 .034-.088.068-.158.061-.047-.004-.05 0-.014.023.036.023.036.028.003.029-.023 0-.034.007-.025.016.01.008.07-.01.133-.042a1.32 1.32 0 0 1 .261-.086c.098-.02.144-.044.144-.073 0-.037.046-.04.352-.024.193.01.485.039.648.064.296.047.296.047.407-.014.133-.073.346-.083.402-.018.02.024.077.063.125.087.08.039.085.04.051 0-.063-.073 0-.071.245.007.79.254 1.434.707 1.913 1.343.113.151.12.22.012.127l-.061-.052.047.088a.412.412 0 0 1 .047.12c0 .019.076.153.169.298.209.328.268.438.253.479-.006.017-.098-.098-.206-.257a6.839 6.839 0 0 0-.353-.474c-.13-.153-.163-.18-.19-.147a.172.172 0 0 1-.096.05l-.064.008.064.119c.034.065.068.106.073.09.03-.088.17.027.235.19.02.053.076.162.122.243.047.08.08.151.072.158-.007.007-.05-.015-.095-.049l-.08-.061.055.091c.03.05.081.112.113.137.04.031.06.08.06.156.004.141.088.308.134.264.071-.068.086-.026.068.198-.013.165-.006.274.025.39.048.175.038.218-.032.136-.044-.052-.045-.052-.025.002.043.116.074.29.066.357-.017.127-.067.075-.084-.088l-.017-.159-.005.17a2.951 2.951 0 0 1-.05.398 1.364 1.364 0 0 0-.029.349c.017.124.005.128-.103.04-.043-.036-.051-.03-.081.078a.314.314 0 0 0 0 .218c.02.054.03.128.025.164-.013.083-.082.108-.082.03 0-.098-.038-.063-.157.142-.321.553-.83.981-1.404 1.183a2.996 2.996 0 0 1-.948.184l-.344.02.17.05c.137.04.217.046.416.03.26-.02.564-.073.702-.124.056-.02.093-.02.112-.003.045.043-.355.213-.592.251-.403.066-.943-.005-1.42-.185-.323-.123-.803-.442-.73-.486.014-.008.106.034.203.093.125.076.178.096.178.067 0-.054.018-.051.117.016.09.062.366.175.564.233.216.063.132-.013-.158-.143-.917-.41-1.298-.821-1.488-1.604-.07-.287.005-.917.132-1.114a.363.363 0 0 0 .059-.137c0-.109.189-.397.384-.584.342-.328.698-.465 1.161-.445.224.01.32.03.505.1.211.08.477.25.396.251a.948.948 0 0 1-.187-.06c-.127-.05-.208-.06-.496-.061-.404-.002-.601.053-.889.247-.407.276-.634.593-.714 1a1.355 1.355 0 0 0-.014.62c.024.156.041.202.072.19.025-.009.04.005.04.038 0 .097.22.49.371.665.367.423.96.692 1.521.692.292 0 .528-.053.745-.17.088-.046.198-.103.245-.126a.923.923 0 0 0 .392-.35c.067-.099.14-.18.162-.18.033 0 .032.015-.007.076-.128.203.172-.165.328-.402l.174-.265-.019-.174c-.018-.167-.016-.178.068-.261.08-.081.087-.105.097-.322.008-.193.002-.233-.033-.234-.034 0-.048-.05-.062-.22-.019-.224-.209-.978-.253-1.004a.598.598 0 0 1-.083-.161c-.107-.273-.296-.534-.591-.82-.424-.41-.959-.727-1.464-.867-.429-.12-1.158-.076-1.677.1-.254.085-.504.2-.546.248-.019.022-.047.033-.061.024-.016-.009-.012-.034.01-.059.096-.11-.222.092-.426.272-.124.11-.23.201-.235.205-.005.004.019 0 .054-.008.058-.015.06-.01.029.046-.02.036-.126.101-.255.157-.216.094-.356.198-.468.346-.044.06-.046.072-.011.06.024-.01.045-.004.045.012 0 .078-.075.166-.185.218-.244.113-.674.722-.903 1.28-.103.249-.101.24-.045.24.058 0 .054.064-.026.408-.118.5-.118.484.01 1.188.156.858.247 1.145.42 1.322.04.042.08.13.098.22a.437.437 0 0 0 .122.243c.06.061.08.098.057.106-.045.016.097.22.226.324.065.053.114.07.166.06.115-.02.231.043.41.224.187.188.206.238.083.22-.08-.01-.082-.008-.043.049.023.033.106.112.185.176.111.09.14.129.126.171-.02.06.037.117.166.165.08.029.106.092.046.112-.019.005.094.117.25.248.177.147.295.227.312.211.045-.041.102-.028.103.023 0 .056.051.116.234.274.115.1.143.112.214.093.065-.017.105-.006.196.053.182.118.292.165.386.165.093 0 .106.026.058.112-.026.046-.02.053.038.053.038 0 .143.025.235.055.209.069.296.074.243.013-.077-.089.005-.065.28.084.386.207.581.23 1.349.164.113-.01.15-.004.15.023 0 .024-.098.06-.28.102-.238.055-.364.066-.853.072-.384.005-.647-.005-.798-.03Zm-.392-4.126a.293.293 0 0 0-.079-.057l-.079-.046.068.057c.066.055.09.067.09.046Zm3.949-2.885c-.01-.022-.016-.015-.018.017-.001.029.006.045.015.036.01-.01.011-.033.003-.053Zm-6.527-2.905c.036-.044.035-.045-.01-.01-.028.02-.05.042-.05.048 0 .022.023.008.06-.038Zm.326-.255c.029-.03.046-.055.038-.055a.223.223 0 0 0-.066.055c-.029.03-.046.055-.038.055a.224.224 0 0 0 .066-.055Zm.361-.193c.095-.03.149-.036.168-.017.02.019.094.008.232-.036.111-.035.197-.068.191-.074a.861.861 0 0 0-.204.05c-.145.047-.197.054-.213.029-.028-.043-.289.041-.4.128l-.077.06.082-.048c.045-.026.145-.067.221-.092Zm.827-.07c.083-.024.147-.048.14-.054-.013-.013-.31.069-.31.085 0 .017.003.017.17-.031Zm.476-.15.114-.02-.1-.003a.381.381 0 0 0-.172.04c-.046.027-.052.035-.014.023.031-.011.109-.029.172-.04Zm.227-.052c.01-.014-.01-.018-.04-.01-.068.016-.076.035-.017.035.023 0 .049-.011.058-.025Zm.927.008c-.01-.009-.035-.01-.055-.002-.023.01-.017.016.017.017.03.001.047-.006.038-.015Zm-.172-.03a.246.246 0 0 0-.1 0c-.028.007-.005.013.05.013s.078-.006.05-.013Zm-.286-.028a1.497 1.497 0 0 0-.23 0c-.067.006-.019.01.107.01.127 0 .182-.004.123-.01Zm-.374-.024c-.01-.01-.034-.01-.055-.002-.023.009-.016.015.017.016.03.001.047-.005.038-.014Zm-.194 6.615c-.293-.201-.4-.305-.4-.385 0-.042.01-.076.021-.076.042 0 .53.489.52.52-.007.018-.066-.007-.141-.06Zm-.15-.51c-.152-.147-.201-.226-.14-.226.037 0 .32.31.32.35 0 .02-.004.035-.009.035-.004 0-.081-.072-.172-.16Zm1.678-.602c-.08-.031-.03-.089.1-.116.075-.015.194-.053.265-.083.07-.03.133-.05.14-.044.006.006-.026.067-.071.136-.082.124-.084.125-.24.123a.974.974 0 0 1-.194-.016Zm.86-.616c-.077-.03-.08-.08-.015-.254.055-.149.113-.178.08-.041l-.034.158-.013.069.057-.063a.443.443 0 0 0 .077-.213c.011-.082.031-.143.045-.135.036.021.032.239-.006.385-.034.128-.064.143-.19.094Zm-6.787-.346a.923.923 0 0 1-.017-.208c0-.12.01-.162.036-.154.043.013.067.406.026.406-.015 0-.035-.02-.045-.043Zm6.9-.643c-.045-.058-.058-.104-.046-.152.026-.1.094-.085.144.03.078.179.01.263-.098.122Zm-6.906-.437c-.002-.156 0-.161.072-.159.061.002.076.018.083.087.008.078-.08.233-.133.233-.01 0-.02-.073-.022-.161Zm7.434-3.384c.005-.246.048-.33.081-.157.024.12-.006.332-.052.369-.024.02-.032-.034-.029-.212Zm-3.768-.147c.011-.034.407-.189.48-.189.086 0-.068.1-.245.16-.198.068-.25.074-.235.029Z" opacity=".75"/><path fill="#FAFAFA" d="M7 13.994v3.249c0 .138.111.25.25.25h1.5a.25.25 0 0 0 .25-.25v-3.249H7Zm.5 2h1v.999h-1v-1Z"/><path fill="#FAFAFA" d="M8 1v1h1V1H8Zm0 1H7v1h1V2Zm0 1v.999h1v-1H8Zm0 .999H7v1h1v-1Zm0 1v.999h1v-1H8Zm0 .999H7v1h1v-1Zm0 1v.999h1v-1H8Zm0 .999H7v1h1v-1Zm0 1v.999h1v-1H8Zm0 .999H7v1h1v-1Zm0 1v1h1v-1H8Zm0 1H7v.999h1v-1Zm0 .999v1h1v-1H8Z"/><defs><radialGradient id="a" cx="0" cy="0" r="1" gradientTransform="rotate(116.565 8.441 5.908) scale(24.5967)" gradientUnits="userSpaceOnUse"><stop stop-color="#FA92A8"/><stop offset="1" stop-color="#E04F6D"/></radialGradient></defs></svg>
